X:40
T:Vals av Otto Harberg
T:(SvL Skåne nr. 40)
C:Otto Bernhard Harberg
R:Vals
B:Svenska Låtar Skåne
Z:Patrik Månsson 2009-02-03
O:Emislöv, Skåne
N:Valsen är komponerad av Otto Harberg. (SvL)
M:3/4
L:1/8
K:D
|: D2 | D2 GB dg | b4 a2 | D2 FA df | a4 g2 | E2 Ac ef | g4 f2 |
gf gb ac | d4 :: fg | ag af ge | dc df A2 | BA Bg ec |
de fg a2 | ag af ge | dc df A2 | BA Bg ec | d4 :|
K:G
|: ga | bf ge dc | BD GB d2 | ed cD FA |
GA Bc B2 | bf ge dc | BD GB d2 | ed cD FA | G4 :|

